.local/share/icons/Gruvbox-Plus-Dark/panel/24/museeks-tray.svg

<svg xmlns="http://www.w3.org/2000/svg" width="24" height="24" version="1.1">
 <defs>
  <style id="current-color-scheme" type="text/css">
   .ColorScheme-Text { color:#ebdbb2; } .ColorScheme-Highlight { color:#458588; }
  </style>
 </defs>
 <path style="opacity:0.3;fill:currentColor" class="ColorScheme-Text" d="M 16.833984,4 11.855469,9.544922 13.800781,11.248047 14.662109,12 9.2304685,16.751953 8.9746091,16.974609 10.519531,18.519531 15,13.527344 V 20 h 5 V 4 Z M 10.519531,11.033203 6.9785153,14.978516 7.5585935,15.558594 7.9121091,15.248047 11.625,12 Z"/>
 <path style="fill:currentColor" class="ColorScheme-Text" d="M 13.142857,12 8.5714284,16 4,20 V 4.0000003 l 4.5714284,3.9999999 z"/>
</svg>

<svg width="24" height="24" version="1.1" xmlns="http://www.w3.org/2000/svg">
  <defs>
    <style id="current-color-scheme" type="text/css">.ColorScheme-Text { color:#ebdbb2; } .ColorScheme-Highlight { color:#458588; } .ColorScheme-NeutralText { color:#fe8019; } .ColorScheme-PositiveText { color:#689d6a; } .ColorScheme-NegativeText { color:#fb4934; }</style>
  </defs>
  <path class="ColorScheme-Text" d="m16.83 4-4.979 5.545 1.945 1.703 0.8613 0.752-5.432 4.752-0.2559 0.2227 1.545 1.545 4.48-4.992v6.473h5v-16zm-6.314 7.033-3.541 3.945 0.5801 0.5801 0.3535-0.3105 3.713-3.248z" fill="currentColor" opacity=".3"/>
  <path class="ColorScheme-Text" d="m13.14 12-9.143 8v-16l4.571 4z" fill="currentColor"/>
</svg>
